X:4
T:Fiddler's Joy
T:Seconds
R:Strathspey
Z:Transcribed 31 May, 2018 by Stephen Beitzel
C:Trad., arr. by Adam Blaine
M:C
L:1/8
K:D
[| {a}f8| {g}e8 | {Gdc}d2 {g}f<a {AGAG}A>a f/e/d | {gcd}c<{e}A g/f/e {Gdc}d2 {gdG}d>A |
{Gdc}d2 {g}f<a {AGAG}A>a f/e/d | {gcd}c2 {e}A>{d}c {g}e>f g/f/e | {Gdc}d2 {g}f<a {AGAG}A>a f/e/d | {gcd}c<{e}A g/f/e {Gdc}d2 {gdG}d>A ||
{Gdc}d>e {g}f>d {g}f<a {fg}f>d | {gf}g>A {gef}e>d {g}c<e {g}A/B/c | {Gdc}d>e {g}f>d {g}f<a {fg}f>d | {gcd}c<{e}A g/f/e {Gdc}d2 {gdG}d>A |
{Gdc}d>e {g}f>d {g}f<a {fg}f>d | {gf}g>A {gef}e>d {g}c<e {A}e/f/g | a/g/f g/f/e {g}f/e/d {g}e/f/g [M:2/4] | {cd}c<{e}A g/f/(He "Reel Tempo"| e2) |]

